docs/property.svg

<?xml version="1.0" encoding="UTF-8" standalone="no"?>
<svg
   xmlns:osb="http://www.openswatchbook.org/uri/2009/osb"
   xmlns:dc="http://purl.org/dc/elements/1.1/"
   xmlns:cc="http://creativecommons.org/ns#"
   xmlns:rdf="http://www.w3.org/1999/02/22-rdf-syntax-ns#"
   xmlns:svg="http://www.w3.org/2000/svg"
   xmlns="http://www.w3.org/2000/svg"
   width="16.036167"
   version="1.1"
   id="svg7384"
   height="16">
  <metadata
     id="metadata90">
    <rdf:RDF>
      <cc:Work
         rdf:about="">
        <dc:format>image/svg+xml</dc:format>
        <dc:type
           rdf:resource="http://purl.org/dc/dcmitype/StillImage" />
        <dc:title>elementary Symbolic Icon Theme</dc:title>
      </cc:Work>
    </rdf:RDF>
  </metadata>
  <title
     id="title9167">elementary Symbolic Icon Theme</title>
  <defs
     id="defs7386">
    <linearGradient
       id="linearGradient4526"
       osb:paint="solid">
      <stop
         style="stop-color:#ffffff;stop-opacity:1;"
         offset="0"
         id="stop4528" />
    </linearGradient>
  </defs>
  <g
     transform="translate(-433.00039,12)"
     style="display:inline"
     label="status"
     id="layer9" />
  <g
     transform="translate(-433.00039,12)"
     style="display:inline"
     id="layer10" />
  <g
     transform="translate(-433.00039,12)"
     style="display:inline"
     id="layer13" />
  <g
     transform="translate(-433.00039,12)"
     id="layer14" />
  <g
     transform="translate(-433.00039,12)"
     style="display:inline"
     id="layer15" />
  <g
     transform="translate(-433.00039,12)"
     style="display:inline"
     id="g71291" />
  <g
     transform="translate(-701.76365,603.60207)"
     style="display:inline"
     id="layer9-2-2" />
  <g
     transform="translate(-701.76365,603.60207)"
     style="display:inline"
     id="layer10-0-6" />
  <g
     transform="translate(-701.76365,603.60207)"
     id="layer11-5" />
  <g
     transform="translate(-701.76365,603.60207)"
     id="layer14-7-9" />
  <g
     transform="translate(-701.76365,603.60207)"
     style="display:inline"
     id="layer15-5-2" />
  <g
     transform="translate(-701.76365,603.60207)"
     style="display:inline"
     id="g71291-8-4" />
  <g
     transform="translate(-701.76365,603.60207)"
     style="display:inline"
     id="g4953-5" />
  <g
     transform="translate(-701.76365,603.60207)"
     style="display:inline"
     id="layer12-4" />
  <g
     transform="translate(-288.02844,406.39676)"
     style="display:inline"
     id="layer10-2" />
  <g
     transform="translate(-288.02844,406.39676)"
     id="layer11" />
  <g
     transform="translate(-288.02844,406.39676)"
     style="display:inline"
     id="layer13-0" />
  <g
     transform="translate(-288.02844,406.39676)"
     id="layer14-3" />
  <g
     transform="translate(-288.02844,406.39676)"
     style="display:inline"
     id="layer15-1" />
  <g
     transform="translate(-288.02844,406.39676)"
     style="display:inline"
     id="g71291-5" />
  <g
     transform="translate(-288.02844,406.39676)"
     style="display:inline"
     id="g4953" />
  <g
     transform="translate(-288.02844,406.39676)"
     style="display:inline"
     id="layer12" />
  <path
     id="rect3375"
     d="M 10.130787,1 A 4.8692121,4.8692121 0 0 0 5.2615759,5.869212 4.8692121,4.8692121 0 0 0 5.7846357,8.0636861 L 1.3576471,12.488298 c -0.47686282,0.476861 -0.47686282,1.246857 0,1.72372 l 0.4303356,0.430334 c 0.4768629,0.476864 1.2468572,0.476864 1.72372,0 L 7.941069,10.210609 A 4.8692121,4.8692121 0 0 0 10.130787,10.738424 4.8692121,4.8692121 0 0 0 15,5.869212 4.8692121,4.8692121 0 0 0 14.474562,3.6794931 l -3.05039,3.0503901 c -0.476862,0.4768629 -1.246856,0.4768629 -1.7237202,0 L 9.2701167,6.2995476 c -0.4768629,-0.4768628 -0.4768629,-1.2468571 0,-1.7237201 L 12.322884,1.5230599 A 4.8692121,4.8692121 0 0 0 10.130787,1 Z"
     style="color:#fbc02d;clip-rule:nonzero;display:inline;overflow:visible;visibility:visible;opacity:1;isolation:auto;mix-blend-mode:normal;color-interpolation:sRGB;color-interpolation-filters:linearRGB;solid-color:#000000;solid-opacity:1;fill:#808080;fill-opacity:1;fill-rule:nonzero;stroke:none;stroke-width:1;stroke-linecap:butt;stroke-linejoin:miter;stroke-miterlimit:4;stroke-dasharray:none;stroke-dashoffset:0;stroke-opacity:1;marker:none;color-rendering:auto;image-rendering:auto;shape-rendering:auto;text-rendering:auto;enable-background:accumulate" />
</svg>

<?xml version="1.0" encoding="UTF-8"?>
<svg id="svg7384" width="16.036" height="16" version="1.1" xmlns="http://www.w3.org/2000/svg" xmlns:cc="http://creativecommons.org/ns#" xmlns:dc="http://purl.org/dc/elements/1.1/" xmlns:osb="http://www.openswatchbook.org/uri/2009/osb" xmlns:rdf="http://www.w3.org/1999/02/22-rdf-syntax-ns#">
 <metadata id="metadata90">
  <rdf:RDF>
   <cc:Work rdf:about="">
    <dc:format>image/svg+xml</dc:format>
    <dc:type rdf:resource="http://purl.org/dc/dcmitype/StillImage"/>
    <dc:title>elementary Symbolic Icon Theme</dc:title>
   </cc:Work>
  </rdf:RDF>
 </metadata>
 <title id="title9167">elementary Symbolic Icon Theme</title>
 <path id="rect3375" d="m10.131 1a4.8692 4.8692 0 0 0-4.8692 4.8692 4.8692 4.8692 0 0 0 0.52306 2.1945l-4.427 4.4246c-0.47686 0.47686-0.47686 1.2469 0 1.7237l0.43034 0.43033c0.47686 0.47686 1.2469 0.47686 1.7237 0l4.4294-4.4317a4.8692 4.8692 0 0 0 2.1897 0.52782 4.8692 4.8692 0 0 0 4.8692-4.8692 4.8692 4.8692 0 0 0-0.52544-2.1897l-3.0504 3.0504c-0.47686 0.47686-1.2469 0.47686-1.7237 0l-0.43034-0.43034c-0.47686-0.47686-0.47686-1.2469 0-1.7237l3.0528-3.0528a4.8692 4.8692 0 0 0-2.1921-0.52306z" style="color-rendering:auto;color:#fbc02d;fill:#808080;image-rendering:auto;isolation:auto;mix-blend-mode:normal;shape-rendering:auto;solid-color:#000000"/>
</svg>
